!!!SOCIAL_FUNCTION:	songs to insure success
!!!PDT:	1909
!!!OTL: No_68_Hunting_Song_(d).krn
!!!REG: Great_Lakes
!!!LANG: Non-Tone
!!!LING_GROUP: Algonquin
**kern
*staff1
=1-
*clefF4
*k[b-e-a-d-]
*M2/4
4B-\
4B-\
=2||
*M3/4
2c\
8B-\L
8B-\J
=3
2A-\
4E-\
=4
4E-\
2E-\
=5||
*M2/4
4B-\
4B-\
=6||
*M3/4
2c\
8B-\L
8B-\J
=7
2A-\
4E-\
=8||
*M2/4
4E-\
4E-\
=9||
*M3/4
2F\
4F\
=10
4A-\
8.B-\L
16B-\Jk
8c\L
8B-\J
=11
4A-\
4F\
4F\
=12
4..E-\
16A-\
8.A-\L
16A-\Jk
=13
4F\
4F\
4E-\
=14||
*M2/4
4.D-\
8F\
=15
8.E-\L
16F\Jk
8..E-\L
32F\Jkk
=16
2E-\
==
*-
